X:271
T: Es ist das Heil uns kommen her
N: A0624
O: Europa, Mitteleuropa, Deutschland
N: Luth. Gsgb 1524.
R: Romanze, Ballade, Lied, religioeses Lied
M: 4/1
L: 1/2
K: G
d | d2d2d2=f2 | e2d2c2z
d | B2G2B2c2 | d4e4d2z
d | d2d2d2=f2 | e2d2c2z
d | B2G2B2c2 | d4e4d2z
d | g3=fe2d2 | g2e2d2z
d | g3cd2G2 | B2d2B2z
G | A2c2B2A2 | E4A4G3

